account-eye.svg

<svg fill="currentColor" viewBox="0 0 24 24"><path d="M6 8c0-2.21 1.79-4 4-4s4 1.79 4 4-1.79 4-4 4-4-1.79-4-4m3.14 11.75L8.85 19l.29-.75c.7-1.75 1.94-3.11 3.47-4.03-.82-.14-1.69-.22-2.61-.22-4.42 0-8 1.79-8 4v2h7.27c-.04-.09-.09-.17-.13-.25M17 18c-.56 0-1 .44-1 1s.44 1 1 1 1-.44 1-1-.44-1-1-1m6 1c-.94 2.34-3.27 4-6 4s-5.06-1.66-6-4c.94-2.34 3.27-4 6-4s5.06 1.66 6 4m-3.5 0a2.5 2.5 0 0 0-5 0 2.5 2.5 0 0 0 5 0"/></svg>

<svg  viewBox="0 0 24 24" fill="currentColor"><path  d="M6 8C6 5.79 7.79 4 10 4S14 5.79 14 8 12.21 12 10 12 6 10.21 6 8M9.14 19.75L8.85 19L9.14 18.25C9.84 16.5 11.08 15.14 12.61 14.22C11.79 14.08 10.92 14 10 14C5.58 14 2 15.79 2 18V20H9.27C9.23 19.91 9.18 19.83 9.14 19.75M17 18C16.44 18 16 18.44 16 19S16.44 20 17 20 18 19.56 18 19 17.56 18 17 18M23 19C22.06 21.34 19.73 23 17 23S11.94 21.34 11 19C11.94 16.66 14.27 15 17 15S22.06 16.66 23 19M19.5 19C19.5 17.62 18.38 16.5 17 16.5S14.5 17.62 14.5 19 15.62 21.5 17 21.5 19.5 20.38 19.5 19Z"/></svg>
